X: 14643
T: Gan Ainm
R: jig
M: 6/8
K: Amajor
~E3 ABc|eAf ecA|~B3 BAB|dAc EAF|
~E3 FAG|ABA ceg|gaa efa|1 BAG AGF:|2 BAG Ace||
faf fec|efa c2c|B2A Ace|fea bae|
[1 AfA aAf|efe c2B|(3AAA A aAf|ecB Ace:|
[2 ~a3 afe|fec e2E|FAA EAG|ABB AGF||

